src/icons/command-winrm.svg

<?xml version="1.0" encoding="UTF-8"?>
<svg width="14px" height="11px" viewBox="0 0 14 11" version="1.1" xmlns="http://www.w3.org/2000/svg" xmlns:xlink="http://www.w3.org/1999/xlink">
    <!-- Generator: Sketch 59 (86127) - https://sketch.com -->
    <title>HDL/Icon/Standard/command/winrm</title>
    <desc>Created with Sketch.</desc>
    <g id="Colors" stroke="none" stroke-width="1" fill="none" fill-rule="evenodd">
        <g id="Command-Icons" transform="translate(-122.000000, -926.000000)" fill="#4D5969">
            <g id="HDL/Icon/Standard/command/winrm" transform="translate(122.000000, 926.000000)">
                <path d="M3.03321923,0 C2.79831343,0 2.53604378,0.0353021 2.31642233,0.2138672 C2.09680088,0.39243225 2.00818918,0.6400378 1.95704733,0.8720703 C1.31503573,3.8036235 0.673254235,6.735439 0.0322426347,9.666992 L0.0322426347,9.667969 C-0.0350321653,9.978468 -0.00393786532,10.317634 0.191422335,10.5878905 C0.386782435,10.8581245 0.728601585,11 1.06153953,11 L10.9990395,11 C11.256267,11 11.5355545,10.910002 11.7226725,10.725586 C11.9097905,10.54117 11.988962,10.317363 12.0351725,10.1064455 L12.0351725,10.105469 C12.679698,7.159875 13.3228255,4.2137365 13.96486,1.2675781 C14.030633,0.96573305 14.009027,0.6222102 13.796891,0.35839845 C13.5847555,0.09458665 13.2538565,0 12.9472815,0 L3.03321923,0 Z M3.03321923,1 L12.9472815,1 C12.978848,1 12.9803195,1.00215655 12.9951335,1.00390625 C12.9937105,1.01927775 12.9953945,1.0221381 12.9882975,1.0546875 C12.346332,4.000529 11.7021075,6.947195 11.0576335,9.892578 L11.05861,9.8916015 C11.037291,9.9889055 11.019309,10.0053 11.02443,10.0009765 C11.0184925,10.000659 11.020779,10 10.9990395,10 L1.06153953,10 C0.967477485,10 0.993109135,9.989698 1.00196923,10.001953 C1.01075873,10.014113 0.986041185,9.988143 1.00880513,9.8808595 L1.00880513,9.879883 C1.64972568,6.948773 2.29168948,4.0180505 2.93360983,1.08691405 C2.94472423,1.03648765 2.95184003,1.0217633 2.95802393,1.0048828 C2.97458183,1.00286635 2.98645738,1 3.03321923,1 Z M4.76564103,1.4921875 C4.46054648,1.48254786 4.18004123,1.65875686 4.05628773,1.93779213 C3.93253422,2.21682741 3.99021945,2.54302553 4.20216453,2.7626955 L6.62403953,5.347656 L2.80568013,8.145508 C2.57943202,8.30003831 2.45544128,8.56563469 2.48225573,8.83830448 C2.50907017,9.11097426 2.68242305,9.34732976 2.9344391,9.45482739 C3.18645514,9.56232503 3.4770331,9.5238596 3.69239893,9.354492 L8.19239903,6.057617 C8.36555386,5.93067577 8.47601015,5.73561856 8.49580178,5.52183137 C8.51559341,5.30804417 8.4428228,5.0960245 8.29591453,4.939453 L5.29591453,1.7373047 C5.15954501,1.58729527 4.96826077,1.49887476 4.76564103,1.4921875 Z M6.74903953,8 C6.4785626,7.99617478 6.22697851,8.13828147 6.09062374,8.37190464 C5.95426898,8.6055278 5.95426898,8.8944722 6.09062374,9.12809536 C6.22697851,9.36171853 6.4785626,9.50382522 6.74903953,9.5 L8.74903953,9.5 C9.01951647,9.50382522 9.27110056,9.36171853 9.40745533,9.12809536 C9.54381009,8.8944722 9.54381009,8.6055278 9.40745533,8.37190464 C9.27110056,8.13828147 9.01951647,7.99617478 8.74903953,8 L6.74903953,8 Z" id="Shape"></path>
            </g>
        </g>
    </g>
</svg>

<?xml version="1.0" encoding="utf-8"?>
<!-- Generator: Adobe Illustrator 20.1.0, SVG Export Plug-In . SVG Version: 6.00 Build 0)  -->
<svg version="1.1" id="Layer_1" xmlns="http://www.w3.org/2000/svg" xmlns:xlink="http://www.w3.org/1999/xlink" x="0px" y="0px"
	 viewBox="0 0 14 11" style="enable-background:new 0 0 14 11;" xml:space="preserve">
<style type="text/css">
	.st0{fill:#4D5969;}
</style>
<title>HDL/Icon/Standard/command/winrm</title>
<desc>Created with Sketch.</desc>
<g id="Colors">
	<g id="Command-Icons" transform="translate(-122.000000, -926.000000)">
		<g id="HDL_x2F_Icon_x2F_Standard_x2F_command_x2F_winrm" transform="translate(122.000000, 926.000000)">
			<path id="Shape" class="st0" d="M3,0C2.8,0,2.5,0,2.3,0.2C2.1,0.4,2,0.6,2,0.9C1.3,3.8,0.7,6.7,0,9.7v0C0,10,0,10.3,0.2,10.6
				C0.4,10.9,0.7,11,1.1,11H11c0.3,0,0.5-0.1,0.7-0.3s0.3-0.4,0.3-0.6v0c0.6-2.9,1.3-5.9,1.9-8.8C14,1,14,0.6,13.8,0.4
				S13.3,0,12.9,0H3z M3,1h9.9c0,0,0,0,0,0c0,0,0,0,0,0.1c-0.6,2.9-1.3,5.9-1.9,8.8l0,0c0,0.1,0,0.1,0,0.1c0,0,0,0,0,0H1.1
				C1,10,1,10,1,10c0,0,0,0,0-0.1v0C1.6,6.9,2.3,4,3,1C2.9,1,3,1,3,1C3,1,3,1,3,1z M4.8,1.5c-0.3,0-0.6,0.2-0.7,0.4S4,2.5,4.2,2.8
				l2.4,2.6L2.8,8.1C2.6,8.3,2.5,8.6,2.5,8.8s0.2,0.5,0.5,0.6c0.3,0.1,0.5,0.1,0.8-0.1l4.5-3.3c0.2-0.1,0.3-0.3,0.3-0.5
				c0-0.2-0.1-0.4-0.2-0.6l-3-3.2C5.2,1.6,5,1.5,4.8,1.5z M6.7,8C6.5,8,6.2,8.1,6.1,8.4C6,8.6,6,8.9,6.1,9.1
				c0.1,0.2,0.4,0.4,0.7,0.4h2c0.3,0,0.5-0.1,0.7-0.4c0.1-0.2,0.1-0.5,0-0.8C9.3,8.1,9,8,8.7,8H6.7z"/>
		</g>
	</g>
</g>
</svg>
